openmetadata-ui/src/main/resources/ui/src/assets/svg/ic-settings-primery.svg

<svg width="16" height="16" viewBox="0 0 16 16" fill="none" xmlns="http://www.w3.org/2000/svg">
<g clip-path="url(#clip0_13820_30581)">
<path d="M8.47068 15.5H7.52929C6.76789 15.5 6.14841 14.8805 6.14841 14.1192V13.8007C5.82471 13.6972 5.5102 13.5667 5.20807 13.4103L4.98236 13.636C4.43571 14.1834 3.56006 14.1673 3.02929 13.6358L2.36393 12.9705C1.83222 12.4394 1.81692 11.564 2.3641 11.0174L2.58963 10.7919C2.43327 10.4898 2.30275 10.1753 2.19931 9.85156H1.88085C1.11948 9.85156 0.5 9.23211 0.5 8.47071V7.52929C0.5 6.76789 1.11948 6.14844 1.88088 6.14844H2.19934C2.30278 5.82471 2.4333 5.51023 2.58966 5.2081L2.36396 4.98242C1.8171 4.43615 1.83219 3.5607 2.36413 3.02935L3.02955 2.36396C3.56155 1.83122 4.437 1.81792 4.9826 2.36413L5.2081 2.58963C5.51023 2.4333 5.82474 2.30275 6.14844 2.19931V1.88085C6.14844 1.11945 6.76789 0.5 7.52932 0.5H8.47071C9.23211 0.5 9.85156 1.11945 9.85156 1.88085V2.19934C10.1753 2.30275 10.4898 2.4333 10.7919 2.58966L11.0176 2.36396C11.5643 1.81663 12.4399 1.83269 12.9707 2.36416L13.636 3.02949C14.1678 3.56062 14.183 4.43598 13.6359 4.98257L13.4103 5.2081C13.5667 5.51023 13.6972 5.82468 13.8007 6.14844H14.1191C14.8805 6.14844 15.5 6.76789 15.5 7.52929V8.47071C15.5 9.23211 14.8805 9.85156 14.1191 9.85156H13.8007C13.6972 10.1753 13.5667 10.4898 13.4103 10.7919L13.636 11.0176C14.1829 11.5639 14.1678 12.4393 13.6359 12.9707L12.9704 13.6361C12.4384 14.1688 11.563 14.1821 11.0174 13.6359L10.7919 13.4104C10.4898 13.5667 10.1753 13.6973 9.85156 13.8007V14.1192C9.85156 14.8805 9.23211 15.5 8.47068 15.5V15.5ZM5.35499 12.4874C5.77473 12.7356 6.22648 12.9232 6.6977 13.0448C6.89176 13.0948 7.02734 13.2699 7.02734 13.4703V14.1192C7.02734 14.3959 7.25255 14.6211 7.52932 14.6211H8.47071C8.74748 14.6211 8.97269 14.3959 8.97269 14.1192V13.4703C8.97269 13.2699 9.10827 13.0948 9.30233 13.0448C9.77354 12.9232 10.2253 12.7356 10.645 12.4874C10.8177 12.3853 11.0376 12.413 11.1795 12.5549L11.6391 13.0146C11.8373 13.213 12.1555 13.2084 12.3488 13.0148L13.0146 12.349C13.2075 12.1564 13.2139 11.8381 13.0148 11.6393L12.555 11.1794C12.4131 11.0376 12.3854 10.8177 12.4875 10.645C12.7357 10.2253 12.9232 9.77354 13.0448 9.3023C13.0949 9.10824 13.2699 8.97269 13.4703 8.97269H14.1192C14.3959 8.97269 14.6211 8.74751 14.6211 8.47074V7.52932C14.6211 7.25255 14.3959 7.02737 14.1192 7.02737H13.4703C13.2699 7.02737 13.0949 6.89179 13.0448 6.69775C12.9232 6.22651 12.7357 5.77476 12.4875 5.35505C12.3854 5.18237 12.4131 4.96247 12.555 4.82062L13.0146 4.36098C13.2133 4.16252 13.2081 3.84436 13.0148 3.65126L12.349 2.98549C12.1561 2.79225 11.8378 2.78659 11.6393 2.98531L11.1795 3.44513C11.0377 3.58701 10.8177 3.61479 10.6451 3.51266C10.2253 3.26442 9.77357 3.07689 9.30236 2.95528C9.1083 2.90521 8.97271 2.7302 8.97271 2.52978V1.88085C8.97271 1.60408 8.74751 1.37891 8.47074 1.37891H7.52935C7.25258 1.37891 7.02737 1.60408 7.02737 1.88085V2.52972C7.02737 2.73014 6.89179 2.90516 6.69772 2.95522C6.22651 3.07684 5.77476 3.26437 5.35502 3.5126C5.18229 3.6147 4.96241 3.58692 4.82056 3.44507L4.36095 2.98543C4.16278 2.78703 3.84453 2.79163 3.65126 2.98522L2.98543 3.65103C2.7926 3.84362 2.78615 4.16187 2.98525 4.36074L3.44507 4.82056C3.58692 4.96241 3.6147 5.18231 3.5126 5.35499C3.26437 5.7747 3.07687 6.22646 2.95525 6.6977C2.90516 6.89176 2.73014 7.02731 2.52975 7.02731H1.88088C1.60411 7.02734 1.37891 7.25252 1.37891 7.52929V8.47071C1.37891 8.74748 1.60411 8.97266 1.88088 8.97266H2.52972C2.73014 8.97266 2.90513 9.10824 2.95522 9.30228C3.07684 9.77352 3.26437 10.2253 3.51257 10.645C3.61467 10.8177 3.58689 11.0376 3.44504 11.1794L2.9854 11.6391C2.78671 11.8375 2.79189 12.1557 2.98522 12.3488L3.651 13.0145C3.84397 13.2078 4.16226 13.2134 4.36071 13.0147L4.8205 12.5549C4.92503 12.4504 5.1425 12.3617 5.35499 12.4874V12.4874Z" fill="currentColor" stroke="currentColor" stroke-width="0.3"/>
<path d="M8 11.2656C6.20038 11.2656 4.73633 9.80154 4.73633 8.00195C4.73633 6.20236 6.20038 4.73828 8 4.73828C9.79962 4.73828 11.2637 6.20236 11.2637 8.00195C11.2637 9.80154 9.79962 11.2656 8 11.2656V11.2656ZM8 5.61719C6.68501 5.61719 5.61523 6.68699 5.61523 8.00195C5.61523 9.31691 6.68504 10.3867 8 10.3867C9.31496 10.3867 10.3848 9.31691 10.3848 8.00195C10.3848 6.68699 9.31499 5.61719 8 5.61719V5.61719Z" fill="currentColor" stroke="currentColor" stroke-width="0.3"/>
</g>
<defs>
<clipPath id="clip0_13820_30581">
<rect width="16" height="16" fill="white"/>
</clipPath>
</defs>
</svg>

<svg xmlns="http://www.w3.org/2000/svg" width="16" height="16" fill="none"><g fill="currentColor" stroke="currentColor" stroke-width=".3" clip-path="url(#a)"><path d="M8.47 15.5h-.94c-.762 0-1.382-.62-1.382-1.38v-.32a6.06 6.06 0 0 1-.94-.39l-.226.226a1.38 1.38 0 0 1-1.953 0l-.665-.665a1.38 1.38 0 0 1 0-1.954l.226-.225a6.054 6.054 0 0 1-.39-.94h-.32C1.12 9.852.5 9.232.5 8.47v-.942c0-.761.62-1.38 1.38-1.38h.32c.103-.324.233-.639.39-.94l-.226-.227a1.38 1.38 0 0 1 0-1.953l.666-.665a1.38 1.38 0 0 1 1.953 0l.225.226a6.06 6.06 0 0 1 .94-.39v-.32c0-.76.62-1.38 1.381-1.38h.942c.761 0 1.38.62 1.38 1.38v.32c.324.103.639.233.94.39l.227-.226a1.38 1.38 0 0 1 1.953 0l.665.665a1.38 1.38 0 0 1 0 1.954l-.226.225c.157.302.287.617.39.94h.32c.76 0 1.38.62 1.38 1.381v.942c0 .761-.62 1.38-1.38 1.38h-.32a6.057 6.057 0 0 1-.39.94l.226.227a1.38 1.38 0 0 1 0 1.953l-.666.665a1.38 1.38 0 0 1-1.953 0l-.225-.226a6.056 6.056 0 0 1-.94.39v.32c0 .76-.62 1.38-1.381 1.38Zm-3.115-3.013c.42.249.871.436 1.343.558a.44.44 0 0 1 .33.425v.65c0 .276.225.501.501.501h.942a.503.503 0 0 0 .502-.502v-.649c0-.2.135-.375.33-.425a5.18 5.18 0 0 0 1.342-.558.44.44 0 0 1 .535.068l.46.46a.502.502 0 0 0 .709 0l.666-.666a.502.502 0 0 0 0-.71l-.46-.46a.44.44 0 0 1-.067-.534 5.18 5.18 0 0 0 .557-1.343.44.44 0 0 1 .425-.33h.65a.503.503 0 0 0 .501-.501v-.942a.503.503 0 0 0-.502-.502h-.649a.44.44 0 0 1-.425-.33 5.18 5.18 0 0 0-.557-1.342.44.44 0 0 1 .067-.534l.46-.46a.502.502 0 0 0 0-.71l-.666-.666a.502.502 0 0 0-.71 0l-.46.46a.44.44 0 0 1-.534.068 5.18 5.18 0 0 0-1.343-.558.44.44 0 0 1-.33-.425v-.65a.503.503 0 0 0-.501-.501h-.942a.503.503 0 0 0-.502.502v.649a.44.44 0 0 1-.33.425 5.18 5.18 0 0 0-1.342.558.44.44 0 0 1-.534-.068l-.46-.46a.502.502 0 0 0-.71 0l-.666.666a.502.502 0 0 0 0 .71l.46.46a.44.44 0 0 1 .068.534 5.18 5.18 0 0 0-.558 1.343.44.44 0 0 1-.425.33h-.65a.503.503 0 0 0-.501.501v.942c0 .276.225.502.502.502h.649c.2 0 .375.135.425.33.122.47.31.922.558 1.342a.44.44 0 0 1-.068.534l-.46.46a.502.502 0 0 0 0 .71l.666.665a.502.502 0 0 0 .71 0l.46-.46a.442.442 0 0 1 .534-.067Z"/><path d="M8 11.266a3.267 3.267 0 0 1-3.264-3.264c0-1.8 1.464-3.264 3.264-3.264 1.8 0 3.264 1.464 3.264 3.264 0 1.8-1.464 3.264-3.264 3.264Zm0-5.649a2.387 2.387 0 0 0-2.385 2.385A2.387 2.387 0 0 0 8 10.387a2.387 2.387 0 0 0 2.385-2.385A2.387 2.387 0 0 0 8 5.617Z"/></g><defs><clipPath id="a"><path fill="#fff" d="M0 0h16v16H0z"/></clipPath></defs></svg>
